app/images/ben-01-optimization.svg

<?xml version="1.0" encoding="utf-8"?>
<!-- Generator: Adobe Illustrator 16.0.0, SVG Export Plug-In . SVG Version: 6.00 Build 0)  -->
<!DOCTYPE svg PUBLIC "-//W3C//DTD SVG 1.1//EN" "http://www.w3.org/Graphics/SVG/1.1/DTD/svg11.dtd">
<svg version="1.1" id="Layer_1" xmlns="http://www.w3.org/2000/svg" xmlns:xlink="http://www.w3.org/1999/xlink" x="0px" y="0px"
	 width="96px" height="96px" viewBox="0 0 96 96" enable-background="new 0 0 96 96" xml:space="preserve">
<title>ben-01-optimization</title>
<desc>Created with Sketch.</desc>
<g id="Page-1">
	<g id="ben-01-optimization">
		<path id="Shape" fill="#333366" d="M74.5,66.6c0-3.399-2.2-6.399-5.4-7.399C68.3,58.9,67.9,58.1,68.2,57.3
			c0.3-0.7,1.1-1.1,1.8-0.899c5.7,1.899,8.8,8,6.9,13.699c-1.9,5.7-8,8.801-13.7,6.9c-3.3-1.1-5.9-3.7-7-7
			c-0.3-0.8,0.1-1.7,0.899-1.9C57.9,67.8,58.8,68.2,59,69c1.3,4.1,5.7,6.4,9.8,5.1C72.3,73.1,74.5,70,74.5,66.6L74.5,66.6z
			 M91.6,72.9C93.8,72.5,95.4,70.6,95.4,68.3v-3.5c0-2.3-1.601-4.2-3.801-4.6L88.4,59.6c-0.4-1.3-0.9-2.5-1.5-3.699l1.8-2.601
			c1.3-1.899,1.1-4.399-0.5-6L85.8,45c-1.6-1.6-4.1-1.8-6-0.5l-2.6,1.8c-1.101-0.5-2.101-1-3.3-1.3C73.1,44.7,72.3,45.1,72,45.9
			c-0.3,0.8,0.1,1.6,0.9,1.9c1.3,0.4,2.5,0.9,3.6,1.601c0.5,0.3,1.1,0.3,1.6-0.101l3.4-2.4c0.7-0.5,1.5-0.4,2.1,0.2l2.4,2.5
			c0.6,0.601,0.6,1.5,0.2,2.101L83.8,55.1C83.5,55.6,83.4,56.2,83.7,56.7c0.899,1.5,1.5,3.1,2,4.7c0.2,0.6,0.6,1,1.2,1.1l4.1,0.7
			c0.8,0.1,1.4,0.8,1.4,1.6v3.5c0,0.8-0.601,1.5-1.4,1.601l-4,0.8c-0.6,0.1-1,0.5-1.2,1.1c-0.5,1.7-1.1,3.3-2,4.7
			c-0.3,0.5-0.3,1.1,0.101,1.6l2.399,3.4c0.5,0.7,0.4,1.5-0.2,2.1L83.7,86.1C83.1,86.7,82.2,86.7,81.6,86.3L78.2,83.9
			C77.7,83.6,77.1,83.5,76.6,83.8c-1.5,0.9-3.1,1.5-4.699,2C71.3,85.9,70.9,86.4,70.8,87L70,91.1c-0.1,0.801-0.8,1.4-1.6,1.4h-3.5
			c-0.801,0-1.5-0.6-1.601-1.4L62.6,87c-0.1-0.6-0.5-1-1.1-1.2c-1.7-0.5-3.2-1.1-4.7-2c-0.5-0.3-1.1-0.3-1.6,0.101L51.8,86.3
			c-0.7,0.5-1.5,0.4-2.1-0.2L47.2,83.7C46.6,83.1,46.6,82.2,47,81.6l2.4-3.399c0.3-0.5,0.399-1.101,0.1-1.601
			c-0.6-1.1-1.2-2.399-1.6-3.6c-0.3-0.8-1.1-1.2-1.9-0.9C45.2,72.4,44.8,73.2,45.1,74c0.4,1.1,0.8,2.2,1.4,3.3L44.7,79.9
			c-1.3,1.899-1.1,4.399,0.5,6l2.5,2.399c1.6,1.601,4.1,1.8,6,0.5l2.6-1.8c1.2,0.6,2.4,1.1,3.7,1.5l0.6,3.2
			c0.4,2.2,2.301,3.8,4.601,3.8h3.5c2.3,0,4.2-1.6,4.6-3.8l0.601-3.2c1.3-0.4,2.5-0.9,3.699-1.5l2.601,1.8
			c1.899,1.3,4.399,1.101,6-0.5L88.6,85.9c1.601-1.601,1.801-4.101,0.5-6L87,77.2c0.6-1.2,1.1-2.4,1.5-3.7L91.6,72.9L91.6,72.9z
			 M9,53.7l2.5-3.5c-0.9-1.601-1.6-3.3-2.1-5.1l-4.3-0.8c-2.6-0.5-4.5-2.7-4.5-5.4v-4.4c0-2.7,1.9-4.9,4.5-5.4l4.3-0.8
			c0.5-1.8,1.2-3.4,2.1-5.1L9,19.8c-1.5-2.2-1.3-5.1,0.6-7l3.1-3.1c1.9-1.9,4.8-2.1,7-0.6l3.5,2.5c1.6-0.9,3.3-1.6,5.1-2.1l0.8-4.3
			c0.5-2.6,2.7-4.5,5.4-4.5h4.4c2.7,0,4.9,1.9,5.4,4.5l0.8,4.3c1.8,0.5,3.4,1.2,5.1,2.1l3.6-2.5c2.2-1.5,5.101-1.3,7,0.6l3.101,3.1
			c1.899,1.9,2.1,4.8,0.6,7L62,23.3c0.9,1.6,1.6,3.3,2.1,5.1l4.301,0.8c2.6,0.5,4.5,2.7,4.5,5.4V39c0,2.7-1.9,5-4.5,5.4L64.1,45.2
			c-0.5,1.7-1.199,3.399-2.1,5l2.5,3.5c1.5,2.2,1.3,5.1-0.6,7L60.8,63.8C58.9,65.7,56,65.9,53.8,64.4L50.1,62
			c-1.6,0.9-3.3,1.6-5.1,2.1L44.2,68.4c-0.5,2.6-2.7,4.5-5.4,4.5h-4.4c-2.7,0-4.9-1.9-5.4-4.5L28.2,64.1c-1.7-0.5-3.4-1.199-5-2.1
			l-3.5,2.5c-2.2,1.5-5.1,1.3-7-0.6L9.5,60.8C7.7,58.8,7.5,55.9,9,53.7L9,53.7z M11.7,58.6l3.1,3.101c0.8,0.8,2.2,1,3.2,0.3l4.3-3
			c0.5-0.4,1.2-0.4,1.7-0.1c1.9,1.1,4,2,6.1,2.5c0.6,0.199,1,0.6,1.1,1.199l0.9,5.2c0.2,1.2,1.2,2.101,2.5,2.101H39
			c1.2,0,2.3-0.9,2.5-2.101l0.9-5.2c0.1-0.6,0.5-1,1.1-1.199c2.1-0.601,4.2-1.4,6.1-2.5C50.1,58.6,50.7,58.7,51.2,59l4.3,3
			c1,0.7,2.3,0.6,3.2-0.3l3.1-3.101c0.9-0.899,1-2.199,0.3-3.199l-3-4.301C58.8,50.6,58.7,50,59,49.5c1.1-1.9,2-4,2.5-6.1
			c0.2-0.6,0.6-1,1.2-1.1l5.2-0.9c1.199-0.2,2.1-1.2,2.1-2.5v-4.4c0-1.2-0.9-2.3-2.1-2.5l-5.2-0.9c-0.601-0.1-1-0.5-1.2-1.1
			c-0.6-2.1-1.4-4.2-2.6-6.1C58.6,23.4,58.6,22.7,59,22.3l3-4.4c0.7-1,0.6-2.3-0.3-3.2L58.6,11.6c-0.899-0.9-2.199-1-3.199-0.3
			l-4.301,3c-0.5,0.3-1.1,0.4-1.6,0.1c-1.9-1.1-4-1.9-6.1-2.5c-0.6-0.2-1-0.6-1.1-1.2l-0.9-5.2c-0.2-1.2-1.2-2.1-2.5-2.1h-4.4
			c-1.2,0-2.3,0.9-2.5,2.1l-0.9,5.2c-0.1,0.6-0.5,1-1.1,1.2c-2.1,0.6-4.2,1.4-6.1,2.5c-0.5,0.3-1.1,0.3-1.6-0.1l-4.3-3
			c-1-0.7-2.3-0.6-3.2,0.3l-3.1,3.1c-0.8,0.8-1,2.1-0.3,3.1l3,4.3c0.4,0.5,0.4,1.2,0.1,1.7c-1.1,1.9-2,3.9-2.5,6.1
			c-0.2,0.6-0.6,1-1.2,1.1l-5.2,0.9c-1.2,0.2-2.1,1.2-2.1,2.5v4.4c0,1.2,0.9,2.3,2.1,2.5l5.2,0.9c0.6,0.1,1,0.5,1.2,1.1
			c0.6,2.1,1.4,4.2,2.5,6.101c0.3,0.5,0.3,1.1-0.1,1.6l-3,4.3C10.8,56.4,10.9,57.8,11.7,58.6L11.7,58.6z M23.3,36.7
			c0-7.4,6-13.4,13.4-13.4c7.4,0,13.399,6,13.399,13.4c0,7.4-6,13.399-13.399,13.399C29.3,50.1,23.3,44.1,23.3,36.7L23.3,36.7z
			 M26.3,36.7c0,5.7,4.6,10.4,10.4,10.4c5.8,0,10.4-4.6,10.4-10.4c0-5.8-4.6-10.4-10.4-10.4C31,26.4,26.4,31,26.3,36.7L26.3,36.7z"
			/>
	</g>
</g>
</svg>

<?xml version="1.0" encoding="UTF-8" standalone="no"?>
<svg width="96px" height="96px" viewBox="0 0 96 96" version="1.1" xmlns="http://www.w3.org/2000/svg" xmlns:xlink="http://www.w3.org/1999/xlink">
    <!-- Generator: Sketch 40 (33762) - http://www.bohemiancoding.com/sketch -->
    <title>ben-01-optimization</title>
    <desc>Created with Sketch.</desc>
    <defs></defs>
    <g id="Page-1" stroke="none" stroke-width="1" fill="none" fill-rule="evenodd">
        <g id="ben-01-optimization" fill="#000000">
            <path d="M74.5,66.6 C74.5,63.2 72.3,60.2 69.1,59.2 C68.3,58.9 67.9,58.1 68.2,57.3 C68.5,56.6 69.3,56.2 70,56.4 C75.7,58.3 78.8,64.4 76.9,70.1 C75,75.8 68.9,78.9 63.2,77 C59.9,75.9 57.3,73.3 56.2,70 C55.9,69.2 56.3,68.3 57.1,68.1 C57.9,67.8 58.8,68.2 59,69 C60.3,73.1 64.7,75.4 68.8,74.1 C72.3,73.1 74.5,70 74.5,66.6 L74.5,66.6 Z M91.6,72.9 C93.8,72.5 95.4,70.6 95.4,68.3 L95.4,64.8 C95.4,62.5 93.8,60.6 91.6,60.2 L88.4,59.6 C88,58.3 87.5,57.1 86.9,55.9 L88.7,53.3 C90,51.4 89.8,48.9 88.2,47.3 L85.8,45 C84.2,43.4 81.7,43.2 79.8,44.5 L77.2,46.3 C76.1,45.8 75.1,45.3 73.9,45 C73.1,44.7 72.3,45.1 72,45.9 C71.7,46.7 72.1,47.5 72.9,47.8 C74.2,48.2 75.4,48.7 76.5,49.4 C77,49.7 77.6,49.7 78.1,49.3 L81.5,46.9 C82.2,46.4 83,46.5 83.6,47.1 L86,49.6 C86.6,50.2 86.6,51.1 86.2,51.7 L83.8,55.1 C83.5,55.6 83.4,56.2 83.7,56.7 C84.6,58.2 85.2,59.8 85.7,61.4 C85.9,62 86.3,62.4 86.9,62.5 L91,63.2 C91.8,63.3 92.4,64 92.4,64.8 L92.4,68.3 C92.4,69.1 91.8,69.8 91,69.9 L87,70.7 C86.4,70.8 86,71.2 85.8,71.8 C85.3,73.5 84.7,75.1 83.8,76.5 C83.5,77 83.5,77.6 83.9,78.1 L86.3,81.5 C86.8,82.2 86.7,83 86.1,83.6 L83.7,86.1 C83.1,86.7 82.2,86.7 81.6,86.3 L78.2,83.9 C77.7,83.6 77.1,83.5 76.6,83.8 C75.1,84.7 73.5,85.3 71.9,85.8 C71.3,85.9 70.9,86.4 70.8,87 L70,91.1 C69.9,91.9 69.2,92.5 68.4,92.5 L64.9,92.5 C64.1,92.5 63.4,91.9 63.3,91.1 L62.6,87 C62.5,86.4 62.1,86 61.5,85.8 C59.8,85.3 58.3,84.7 56.8,83.8 C56.3,83.5 55.7,83.5 55.2,83.9 L51.8,86.3 C51.1,86.8 50.3,86.7 49.7,86.1 L47.2,83.7 C46.6,83.1 46.6,82.2 47,81.6 L49.4,78.2 C49.7,77.7 49.8,77.1 49.5,76.6 C48.9,75.5 48.3,74.2 47.9,73 C47.6,72.2 46.8,71.8 46,72.1 C45.2,72.4 44.8,73.2 45.1,74 C45.5,75.1 45.9,76.2 46.5,77.3 L44.7,79.9 C43.4,81.8 43.6,84.3 45.2,85.9 L47.7,88.3 C49.3,89.9 51.8,90.1 53.7,88.8 L56.3,87 C57.5,87.6 58.7,88.1 60,88.5 L60.6,91.7 C61,93.9 62.9,95.5 65.2,95.5 L68.7,95.5 C71,95.5 72.9,93.9 73.3,91.7 L73.9,88.5 C75.2,88.1 76.4,87.6 77.6,87 L80.2,88.8 C82.1,90.1 84.6,89.9 86.2,88.3 L88.6,85.9 C90.2,84.3 90.4,81.8 89.1,79.9 L87,77.2 C87.6,76 88.1,74.8 88.5,73.5 L91.6,72.9 L91.6,72.9 Z M9,53.7 L11.5,50.2 C10.6,48.6 9.9,46.9 9.4,45.1 L5.1,44.3 C2.5,43.8 0.6,41.6 0.6,38.9 L0.6,34.5 C0.6,31.8 2.5,29.6 5.1,29.1 L9.4,28.3 C9.9,26.5 10.6,24.9 11.5,23.2 L9,19.8 C7.5,17.6 7.7,14.7 9.6,12.8 L12.7,9.7 C14.6,7.8 17.5,7.6 19.7,9.1 L23.2,11.6 C24.8,10.7 26.5,10 28.3,9.5 L29.1,5.2 C29.6,2.6 31.8,0.7 34.5,0.7 L38.9,0.7 C41.6,0.7 43.8,2.6 44.3,5.2 L45.1,9.5 C46.9,10 48.5,10.7 50.2,11.6 L53.8,9.1 C56,7.6 58.9,7.8 60.8,9.7 L63.9,12.8 C65.8,14.7 66,17.6 64.5,19.8 L62,23.3 C62.9,24.9 63.6,26.6 64.1,28.4 L68.4,29.2 C71,29.7 72.9,31.9 72.9,34.6 L72.9,39 C72.9,41.7 71,44 68.4,44.4 L64.1,45.2 C63.6,46.9 62.9,48.6 62,50.2 L64.5,53.7 C66,55.9 65.8,58.8 63.9,60.7 L60.8,63.8 C58.9,65.7 56,65.9 53.8,64.4 L50.1,62 C48.5,62.9 46.8,63.6 45,64.1 L44.2,68.4 C43.7,71 41.5,72.9 38.8,72.9 L34.4,72.9 C31.7,72.9 29.5,71 29,68.4 L28.2,64.1 C26.5,63.6 24.8,62.9 23.2,62 L19.7,64.5 C17.5,66 14.6,65.8 12.7,63.9 L9.5,60.8 C7.7,58.8 7.5,55.9 9,53.7 L9,53.7 Z M11.7,58.6 L14.8,61.7 C15.6,62.5 17,62.7 18,62 L22.3,59 C22.8,58.6 23.5,58.6 24,58.9 C25.9,60 28,60.9 30.1,61.4 C30.7,61.6 31.1,62 31.2,62.6 L32.1,67.8 C32.3,69 33.3,69.9 34.6,69.9 L39,69.9 C40.2,69.9 41.3,69 41.5,67.8 L42.4,62.6 C42.5,62 42.9,61.6 43.5,61.4 C45.6,60.8 47.7,60 49.6,58.9 C50.1,58.6 50.7,58.7 51.2,59 L55.5,62 C56.5,62.7 57.8,62.6 58.7,61.7 L61.8,58.6 C62.7,57.7 62.8,56.4 62.1,55.4 L59.1,51.1 C58.8,50.6 58.7,50 59,49.5 C60.1,47.6 61,45.5 61.5,43.4 C61.7,42.8 62.1,42.4 62.7,42.3 L67.9,41.4 C69.1,41.2 70,40.2 70,38.9 L70,34.5 C70,33.3 69.1,32.2 67.9,32 L62.7,31.1 C62.1,31 61.7,30.6 61.5,30 C60.9,27.9 60.1,25.8 58.9,23.9 C58.6,23.4 58.6,22.7 59,22.3 L62,17.9 C62.7,16.9 62.6,15.6 61.7,14.7 L58.6,11.6 C57.7,10.7 56.4,10.6 55.4,11.3 L51.1,14.3 C50.6,14.6 50,14.7 49.5,14.4 C47.6,13.3 45.5,12.5 43.4,11.9 C42.8,11.7 42.4,11.3 42.3,10.7 L41.4,5.5 C41.2,4.3 40.2,3.4 38.9,3.4 L34.5,3.4 C33.3,3.4 32.2,4.3 32,5.5 L31.1,10.7 C31,11.3 30.6,11.7 30,11.9 C27.9,12.5 25.8,13.3 23.9,14.4 C23.4,14.7 22.8,14.7 22.3,14.3 L18,11.3 C17,10.6 15.7,10.7 14.8,11.6 L11.7,14.7 C10.9,15.5 10.7,16.8 11.4,17.8 L14.4,22.1 C14.8,22.6 14.8,23.3 14.5,23.8 C13.4,25.7 12.5,27.7 12,29.9 C11.8,30.5 11.4,30.9 10.8,31 L5.6,31.9 C4.4,32.1 3.5,33.1 3.5,34.4 L3.5,38.8 C3.5,40 4.4,41.1 5.6,41.3 L10.8,42.2 C11.4,42.3 11.8,42.7 12,43.3 C12.6,45.4 13.4,47.5 14.5,49.4 C14.8,49.9 14.8,50.5 14.4,51 L11.4,55.3 C10.8,56.4 10.9,57.8 11.7,58.6 L11.7,58.6 Z M23.3,36.7 C23.3,29.3 29.3,23.3 36.7,23.3 C44.1,23.3 50.1,29.3 50.1,36.7 C50.1,44.1 44.1,50.1 36.7,50.1 C29.3,50.1 23.3,44.1 23.3,36.7 L23.3,36.7 Z M26.3,36.7 C26.3,42.4 30.9,47.1 36.7,47.1 C42.5,47.1 47.1,42.5 47.1,36.7 C47.1,30.9 42.5,26.3 36.7,26.3 C31,26.4 26.4,31 26.3,36.7 L26.3,36.7 Z" id="Shape"></path>
        </g>
    </g>
</svg>
